cssgg/atlasian.svg

<svg
  width="24"
  height="24"
  viewBox="0 0 24 24"
  fill="none"
  xmlns="http://www.w3.org/2000/svg"
>
  <path
    opacity="0.8"
    d="M8.50705 11.5562C8.19028 11.1038 7.78219 11.1585 7.59556 11.6783L5 18.9075H10.1778C10.6982 16.85 10.2481 14.0427 9.08063 12.3754L8.50705 11.5562Z"
    fill="currentColor"
  />
  <path
    d="M12.8745 7.12641C11.6074 8.93603 11.1992 12.0835 11.9627 14.1565L13.7126 18.9074H18.9644L14.3673 6.42648C14.1764 5.90823 13.7649 5.85485 13.4481 6.30726L12.8745 7.12641Z"
    fill="currentColor"
  />
</svg>

<svg viewBox="0 0 24 24" xmlns="http://www.w3.org/2000/svg"><g><path opacity=".8" d="M8.5 11.55c-.32-.46-.73-.4-.92.12l-2.6 7.22h5.17c.52-2.06.07-4.87-1.1-6.54l-.58-.82Z"/><path d="M12.87 7.12c-1.27 1.8-1.68 4.95-.92 7.03l1.74 4.75h5.25l-4.6-12.49c-.2-.52-.61-.58-.92-.12l-.58.81Z"/></g></svg>
